X: 30572
T: One After It, The
R: jig
M: 6/8
K: Dmixolydian
F2D DCA,|CDE D2D|d3 fde|dcA G3|
AdB c2A|BGA FDE|=FCA, ^FAF|1 GEC DAG:|2 GEC DFA|
daf g3|afd g/f/ec|dfa gfg|cde d^cd|
fga efg|^cde E^GB|Ace d^cA|GEA DFA|
d3 g3|ece age|daf gfg|cde d^cd|
fga efg|^cde E^GB|A^ce d=cA|GEA D3||

